email-sync.svg

<svg fill="currentColor" viewBox="0 0 24 24"><path d="M3 4c-1.11 0-2 .89-2 2v12a2 2 0 0 0 2 2h10.5a6.5 6.5 0 0 1-.5-2.5 6.5 6.5 0 0 1 6.5-6.5 6.5 6.5 0 0 1 1.5.18V6a2 2 0 0 0-2-2zm0 2 8 5 8-5v2l-8 5-8-5zm16 6-2.25 2.25L19 16.5V15a2.5 2.5 0 0 1 2.5 2.5c0 .4-.09.78-.26 1.12l1.09 1.09c.42-.63.67-1.39.67-2.21 0-2.21-1.79-4-4-4zm-3.33 3.29c-.42.63-.67 1.39-.67 2.21 0 2.21 1.79 4 4 4V23l2.25-2.25L19 18.5V20a2.5 2.5 0 0 1-2.5-2.5c0-.4.09-.78.26-1.12z"/></svg>

<svg  viewBox="0 0 24 24" fill="currentColor"><path  d="M3 4C1.89 4 1 4.89 1 6V18C1 19.11 1.9 20 3 20H13.5A6.5 6.5 0 0 1 13 17.5A6.5 6.5 0 0 1 19.5 11A6.5 6.5 0 0 1 21 11.18V6C21 4.89 20.1 4 19 4H3M3 6L11 11L19 6V8L11 13L3 8V6M19 12L16.75 14.25L19 16.5V15C20.38 15 21.5 16.12 21.5 17.5C21.5 17.9 21.41 18.28 21.24 18.62L22.33 19.71C22.75 19.08 23 18.32 23 17.5C23 15.29 21.21 13.5 19 13.5V12M15.67 15.29C15.25 15.92 15 16.68 15 17.5C15 19.71 16.79 21.5 19 21.5V23L21.25 20.75L19 18.5V20C17.62 20 16.5 18.88 16.5 17.5C16.5 17.1 16.59 16.72 16.76 16.38L15.67 15.29Z"/></svg>
